X: 4
T: Old Hag, You Have Killed Me
R: jig
M: 6/8
L: 1/8
K: Dmix
|:FDD c2A|ded cAG|Ac/A/A ABG|Ac/A/A ABG|
F2D cBc|ded cAD|G3 GcA|1 G3 G2E:|2 G3 G2e||
|:f3 g2e|fed cAG|Ac/A/A ABG|Ac/A/A ABd|
f3 g2e|fed cAD|G3 GcA| G3 GBd|
f2d g2e|fed cAG|A3 ABG|A3 B/c/de|
f2d g3|afd cAD|G3 GcA|G3 G3||


Tune 1359	Setting 14711

